; generated by PrusaSlicer 2.5.0+win64 on 2023-02-24 at 09:02:36 UTC


;
;
; 

; external perimeters extrusion width = 0.60mm
; perimeters extrusion width = 0.50mm
; infill extrusion width = 0.50mm
; solid infill extrusion width = 0.50mm
; top infill extrusion width = 0.45mm
; first layer extrusion width = 0.42mm

; external perimeters extrusion width = 0.60mm
; perimeters extrusion width = 0.50mm
; infill extrusion width = 0.50mm
; solid infill extrusion width = 0.50mm
; top infill extrusion width = 0.45mm
; first layer extrusion width = 0.42mm

M73 P0 R61
M73 Q0 S62
M201 X1000 Y1000 Z200 E8000 ; sets maximum accelerations, mm/sec^2
M203 X200 Y200 Z12 E120 ; sets maximum feedrates, mm / sec
M204 P1250 R1250 T1250 ; sets acceleration (P, T) and retract acceleration (R), mm/sec^2
M205 X8.00 Y8.00 Z0.40 E4.50 ; sets the jerk limits, mm/sec
M205 S0 T0 ; sets the minimum extruding and travel feed rate, mm/sec
M107
;TYPE:Custom
M862.3 P "MK3SMMU2S" ; printer model check
M862.1 P0.4 ; nozzle diameter check
M115 U3.11.0 ; tell printer latest fw version
G90 ; use absolute coordinates
M83 ; extruder relative mode
M104 S215 ; set extruder temp
M140 S60 ; set bed temp
M190 S60 ; wait for bed temp
M109 S215 ; wait for extruder temp
G28 W ; home all without mesh bed level
G80 ; mesh bed leveling

; Send the filament type to the MMU2.0 unit.
; E stands for extruder number, F stands for filament type (0: default; 1:flex; 2: PVA)
M403 E0 F0
M403 E1 F0
M403 E2 F0
M403 E3 F0
M403 E4 F0


;go outside print area
G1 Y-3 F1000
G1 Z0.4 F1000
; select extruder
T3
; initial load
G1 X55 E29 F1073
G1 X5 E29 F1800
G1 X55 E8 F2000
G1 Z0.3 F1000
G92 E0
G1 X240 E25 F2200
G1 Y-2 F1000
G1 X55 E25 F1400
G1 Z0.2 F1000
G1 X5 E4 F1000
G92 E0


M221 S95
G92 E0

; Don't change E values below. Excessive value can damage the printer.

M907 E538 ; set extruder motor current
G21 ; set units to millimeters
G90 ; use absolute coordinates
M83 ; use relative distances for extrusion
T3
M900 K0.05 ; Filament gcode LA 1.5
M900 K30 ; Filament gcode LA 1.0
M107
;LAYER_CHANGE
;Z:0.2
;HEIGHT:0.2
;BEFORE_LAYER_CHANGE
G92 E0.0
;0.2


G1 E-.8 F2100
M73 P1 R61
M73 Q1 S62
G1 Z.4 F720
;AFTER_LAYER_CHANGE
;0.2
G1 X56.244 Y62.014 F10800
G1 Z.2 F720
G1 E.8 F2100
M204 S800
;TYPE:Skirt/Brim
;WIDTH:0.42
G1 F1200
G1 X57.76 Y61.324 E.05223
G1 X137.301 Y55.803 E2.49995
G1 X222.101 Y55.803 E2.65884
G1 X223.408 Y56.195 E.04278
M73 Q1 S61
G1 X224.284 Y57.24 E.04278
G1 X224.478 Y58.18 E.03008
G1 X224.478 Y92.58 E1.07859
G1 X224.086 Y93.887 E.04278
G1 X223.04 Y94.763 E.04278
G1 X222.236 Y94.953 E.02592
G1 X62.059 Y104.068 E5.03034
G1 X57.924 Y104.072 E.12965
M73 P1 R60
G1 X56.617 Y103.68 E.04278
G1 X55.798 Y102.758 E.03868
G1 X45.798 Y82.758 E.7011
G1 X45.547 Y81.695 E.03425
G1 X45.547 Y73.695 E.25083
G1 X46.244 Y72.014 E.05704
G1 X56.201 Y62.057 E.44154
M204 S1000
; printing object First.stl id:0 copy 0
;WIPE_START
G1 F8640
G1 X57.76 Y61.324 E-.39767
G1 X59.325 Y61.215 E-.36233
;WIPE_END
G1 E-.04 F2100
G1 Z.6 F720
G1 X61.331 Y97.059 F10800
G1 Z.2 F720
G1 E.8 F2100
M204 S800
;TYPE:Perimeter
;WIDTH:0.419999
G1 F1200
G1 X61.303 Y97.074 E.001
G1 X61.184 Y97.249 E.00665
G1 X61.137 Y97.473 E.00719
G1 X61.137 Y100.908 E.10768
G1 X58.711 Y100.908 E.07606
G1 X58.711 Y94.482 E.20148
G1 X65.137 Y94.482 E.20148
G1 X65.137 Y96.908 E.07606
G1 X61.703 Y96.908 E.10768
G1 X61.605 Y96.916 E.00308
G1 X61.384 Y97.031 E.0078
M204 S1000
G1 X61.57 Y97.34 F10800
M204 S800
;TYPE:External perimeter
G1 F1200
G1 X61.514 Y97.473 E.00452
G1 X61.514 Y101.285 E.11951
G1 X58.334 Y101.285 E.09971
G1 X58.334 Y94.105 E.22512
G1 X65.514 Y94.105 E.22512
G1 X65.514 Y97.285 E.09971
G1 X61.703 Y97.285 E.11951
G1 X61.625 Y97.317 E.00264
M204 S1000
G1 X61.43 Y97.303 F10800
;WIPE_START
G1 F8640
G1 X61.514 Y97.473 E-.04421
G1 X61.514 Y100.573 E-.71578
;WIPE_END
G1 E-.04 F2100
G1 Z.6 F720
G1 X65.024 Y95.371 F10800
G1 Z.2 F720
G1 E.8 F2100
M204 S800
;TYPE:Solid infill
;WIDTH:0.426438
G1 F1200
G1 X64.418 Y94.765 E.02734
G1 X63.876 Y94.765 E.0173
G1 X64.855 Y95.744 E.04415
G1 X64.855 Y96.286 E.0173
G1 X63.333 Y94.765 E.06861
G1 X62.791 Y94.765 E.0173
G1 X64.651 Y96.625 E.0839
G1 X64.109 Y96.625 E.0173
G1 X62.248 Y94.765 E.0839
G1 X61.706 Y94.765 E.0173
G1 X63.566 Y96.625 E.0839
G1 X63.024 Y96.625 E.0173
G1 X61.164 Y94.765 E.0839
G1 X60.621 Y94.765 E.0173
G1 X62.482 Y96.625 E.0839
G1 X61.939 Y96.625 E.0173
G1 X60.079 Y94.765 E.0839
G1 X59.537 Y94.765 E.0173
G1 X61.443 Y96.671 E.08597
G1 X61.362 Y96.695 E.00268
G1 X61.102 Y96.872 E.01005
G1 X58.994 Y94.765 E.09505
G1 X58.994 Y95.307 E.0173
G1 X60.905 Y97.218 E.08619
G1 X60.855 Y97.464 E.00799
G1 X60.855 Y97.71 E.00785
G1 X58.994 Y95.85 E.0839
G1 X58.994 Y96.392 E.0173
G1 X60.855 Y98.252 E.0839
G1 X60.855 Y98.795 E.0173
G1 X58.994 Y96.934 E.0839
G1 X58.994 Y97.477 E.0173
G1 X60.855 Y99.337 E.0839
G1 X60.855 Y99.879 E.0173
G1 X58.994 Y98.019 E.0839
G1 X58.994 Y98.561 E.0173
G1 X60.855 Y100.422 E.0839
G1 X60.855 Y100.625 E.00648
G1 X60.515 Y100.625 E.01081
G1 X58.994 Y99.104 E.0686
G1 X58.994 Y99.646 E.0173
G1 X59.973 Y100.625 E.04414
G1 X59.431 Y100.625 E.0173
G1 X58.825 Y100.019 E.02734
M204 S1000
;WIPE_START
G1 F8640
G1 X59.431 Y100.625 E-.19793
G1 X59.973 Y100.625 E-.12524
G1 X58.994 Y99.646 E-.31963
G1 X58.994 Y99.139 E-.1172
;WIPE_END
G1 E-.04 F2100
G1 Z.6 F720
G1 X65.629 Y88.467 F10800
G1 Z.2 F720
G1 E.8 F2100
M204 S800
;TYPE:Perimeter
;WIDTH:0.419999
G1 F1200
G1 X65.703 Y88.482 E.00236
G1 X69.137 Y88.482 E.10768
G1 X69.137 Y90.908 E.07606
G1 X62.711 Y90.908 E.20148
G1 X62.711 Y87.473 E.10768
G1 X62.665 Y87.249 E.00719
G1 X62.546 Y87.074 E.00665
G1 X62.371 Y86.954 E.00665
G1 X62.146 Y86.908 E.00719
G1 X58.711 Y86.908 E.10768
G1 X58.711 Y84.482 E.07606
G1 X65.137 Y84.482 E.20148
G1 X65.146 Y88.014 E.11075
G1 X65.303 Y88.316 E.01068
G1 X65.478 Y88.435 E.00665
G1 X65.57 Y88.455 E.00295
M204 S1000
G1 X65.703 Y88.105 F10800
M204 S800
;TYPE:External perimeter
G1 F1200
G1 X69.514 Y88.105 E.11951
G1 X69.514 Y91.285 E.09971
G1 X62.334 Y91.285 E.22512
G1 X62.334 Y87.473 E.11951
G1 X62.279 Y87.34 E.00452
G1 X62.146 Y87.285 E.00452
G1 X58.334 Y87.285 E.11951
G1 X58.334 Y84.105 E.09971
G1 X65.514 Y84.105 E.22512
G1 X65.514 Y87.916 E.11951
G1 X65.57 Y88.05 E.00452
G1 X65.648 Y88.082 E.00264
M204 S1000
G1 X65.806 Y88.491 F10800
;WIPE_START
G1 F8640
G1 X68.939 Y88.102 E-.76
;WIPE_END
G1 E-.04 F2100
G1 Z.6 F720
G1 X64.214 Y84.595 F10800
G1 Z.2 F720
G1 E.8 F2100
M204 S800
;TYPE:Solid infill
;WIDTH:0.44242
G1 F1200
G1 X64.855 Y85.235 E.03007
G1 X64.855 Y85.8 E.01877
G1 X63.819 Y84.765 E.04864
G1 X63.254 Y84.765 E.01877
G1 X64.855 Y86.365 E.07518
G1 X64.855 Y86.93 E.01877
G1 X62.689 Y84.765 E.10173
G1 X62.124 Y84.765 E.01877
G1 X65.024 Y87.665 E.13624
M204 S1000
;WIPE_START
G1 F8640
G1 X62.697 Y85.337 E-.76
;WIPE_END
G1 E-.04 F2100
G1 Z.6 F720
G1 X68.214 Y88.595 F10800
G1 Z.2 F720
G1 E.8 F2100
M204 S800
G1 F1200
G1 X68.855 Y89.235 E.03007
G1 X68.855 Y89.8 E.01877
G1 X67.819 Y88.765 E.04864
G1 X67.254 Y88.765 E.01877
G1 X68.855 Y90.365 E.07518
G1 X68.855 Y90.625 E.00863
G1 X68.549 Y90.625 E.01014
G1 X66.689 Y88.765 E.08739
G1 X66.124 Y88.765 E.01877
G1 X67.984 Y90.625 E.08739
G1 X67.419 Y90.625 E.01877
G1 X61.559 Y84.765 E.2753
G1 X60.994 Y84.765 E.01877
G1 X66.854 Y90.625 E.2753
G1 X66.289 Y90.625 E.01877
M73 P2 R60
G1 X60.429 Y84.765 E.2753
G1 X59.864 Y84.765 E.01877
G1 X61.725 Y86.625 E.08739
G1 X61.16 Y86.625 E.01877
G1 X59.299 Y84.765 E.08739
G1 X58.994 Y84.765 E.01013
M73 Q2 S61
G1 X58.994 Y85.025 E.00864
G1 X60.595 Y86.625 E.07518
G1 X60.03 Y86.625 E.01877
G1 X58.994 Y85.59 E.04864
G1 X58.994 Y86.155 E.01877
G1 X59.634 Y86.795 E.03007
M204 S1000
;WIPE_START
G1 F8640
G1 X58.994 Y86.155 E-.209
G1 X58.994 Y85.59 E-.13045
G1 X60.03 Y86.625 E-.33808
G1 X60.387 Y86.625 E-.08247
;WIPE_END
G1 E-.04 F2100
G1 Z.6 F720
G1 X62.825 Y87.725 F10800
G1 Z.2 F720
G1 E.8 F2100
M204 S800
G1 F1200
G1 X65.725 Y90.625 E.13623
G1 X65.16 Y90.625 E.01877
G1 X62.994 Y88.46 E.10172
G1 X62.994 Y89.025 E.01877
G1 X64.595 Y90.625 E.07518
G1 X64.03 Y90.625 E.01877
G1 X62.994 Y89.59 E.04864
G1 X62.994 Y90.155 E.01877
G1 X63.634 Y90.795 E.03007
M204 S1000
;WIPE_START
G1 F8640
G1 X62.994 Y90.155 E-.209
G1 X62.994 Y89.59 E-.13046
G1 X64.03 Y90.625 E-.33808
G1 X64.387 Y90.625 E-.08247
;WIPE_END
G1 E-.04 F2100
G1 Z.6 F720
G1 X61.655 Y76.912 F10800
G1 Z.2 F720
G1 E.8 F2100
M204 S800
;TYPE:Perimeter
;WIDTH:0.419999
G1 F1200
G1 X61.605 Y76.916 E.00156
G1 X61.303 Y77.074 E.01068
G1 X61.184 Y77.249 E.00665
G1 X61.137 Y77.473 E.00719
G1 X61.137 Y80.908 E.10768
G1 X58.711 Y80.908 E.07606
G1 X58.711 Y74.482 E.20148
G1 X65.137 Y74.482 E.20148
G1 X65.137 Y76.908 E.07606
G1 X61.715 Y76.908 E.10731
M204 S1000
G1 X61.703 Y77.285 F10800
M204 S800
;TYPE:External perimeter
G1 F1200
G1 X61.57 Y77.34 E.00452
G1 X61.514 Y77.473 E.00452
G1 X61.514 Y81.285 E.11951
G1 X58.334 Y81.285 E.09971
G1 X58.334 Y74.105 E.22512
G1 X65.514 Y74.105 E.22512
G1 X65.514 Y77.285 E.09971
G1 X61.763 Y77.285 E.11762
M204 S1000
G1 X61.58 Y77.209 F10800
;WIPE_START
G1 F8640
G1 X61.57 Y77.34 E-.04642
G1 X61.514 Y77.473 E-.03332
G1 X61.514 Y80.42 E-.68026
;WIPE_END
G1 E-.04 F2100
G1 Z.6 F720
G1 X65.024 Y75.371 F10800
G1 Z.2 F720
G1 E.8 F2100
M204 S800
;TYPE:Solid infill
;WIDTH:0.426438
G1 F1200
G1 X64.418 Y74.765 E.02734
G1 X63.876 Y74.765 E.0173
G1 X64.855 Y75.744 E.04415
G1 X64.855 Y76.286 E.0173
G1 X63.333 Y74.765 E.06861
G1 X62.791 Y74.765 E.0173
G1 X64.651 Y76.625 E.0839
G1 X64.109 Y76.625 E.0173
G1 X62.248 Y74.765 E.0839
G1 X61.706 Y74.765 E.0173
G1 X63.566 Y76.625 E.0839
G1 X63.024 Y76.625 E.0173
G1 X61.164 Y74.765 E.0839
G1 X60.621 Y74.765 E.0173
G1 X62.482 Y76.625 E.0839
G1 X61.939 Y76.625 E.0173
G1 X60.079 Y74.765 E.0839
G1 X59.537 Y74.765 E.0173
G1 X61.443 Y76.671 E.08597
G1 X61.362 Y76.695 E.00268
G1 X61.102 Y76.872 E.01005
G1 X58.994 Y74.765 E.09505
G1 X58.994 Y75.307 E.0173
G1 X60.905 Y77.218 E.08619
G1 X60.855 Y77.464 E.00799
G1 X60.855 Y77.71 E.00785
G1 X58.994 Y75.85 E.0839
G1 X58.994 Y76.392 E.0173
G1 X60.855 Y78.252 E.0839
G1 X60.855 Y78.795 E.0173
G1 X58.994 Y76.934 E.0839
G1 X58.994 Y77.477 E.0173
G1 X60.855 Y79.337 E.0839
G1 X60.855 Y79.879 E.0173
G1 X58.994 Y78.019 E.0839
G1 X58.994 Y78.561 E.0173
G1 X60.855 Y80.422 E.0839
G1 X60.855 Y80.625 E.00648
G1 X60.515 Y80.625 E.01081
G1 X58.994 Y79.104 E.0686
G1 X58.994 Y79.646 E.0173
G1 X59.973 Y80.625 E.04414
G1 X59.431 Y80.625 E.0173
G1 X58.825 Y80.019 E.02734
M204 S1000
;WIPE_START
G1 F8640
G1 X59.431 Y80.625 E-.19793
G1 X59.973 Y80.625 E-.12524
G1 X58.994 Y79.646 E-.31963
G1 X58.994 Y79.139 E-.1172
;WIPE_END
G1 E-.04 F2100
G1 Z.6 F720
G1 X51.331 Y77.059 F10800
G1 Z.2 F720
G1 E.8 F2100
M204 S800
;TYPE:Perimeter
;WIDTH:0.419999
G1 F1200
G1 X51.303 Y77.074 E.001
G1 X51.184 Y77.249 E.00665
G1 X51.137 Y77.473 E.00719
G1 X51.137 Y80.908 E.10768
G1 X48.711 Y80.908 E.07606
G1 X48.711 Y74.482 E.20148
G1 X55.137 Y74.482 E.20148
G1 X55.137 Y76.908 E.07606
G1 X51.703 Y76.908 E.10768
G1 X51.605 Y76.916 E.00308
G1 X51.384 Y77.031 E.0078
M204 S1000
G1 X51.57 Y77.34 F10800
M204 S800
;TYPE:External perimeter
G1 F1200
G1 X51.514 Y77.473 E.00452
G1 X51.514 Y81.285 E.11951
G1 X48.334 Y81.285 E.09971
G1 X48.334 Y74.105 E.22512
G1 X55.514 Y74.105 E.22512
G1 X55.514 Y77.285 E.09971
G1 X51.703 Y77.285 E.11951
G1 X51.625 Y77.317 E.00264
M204 S1000
G1 X51.43 Y77.303 F10800
;WIPE_START
G1 F8640
G1 X51.514 Y77.473 E-.04421
G1 X51.514 Y80.573 E-.71579
;WIPE_END
G1 E-.04 F2100
G1 Z.6 F720
G1 X55.024 Y75.371 F10800
G1 Z.2 F720
G1 E.8 F2100
M204 S800
;TYPE:Solid infill
;WIDTH:0.426438
G1 F1200
G1 X54.418 Y74.765 E.02734
G1 X53.876 Y74.765 E.0173
G1 X54.855 Y75.744 E.04415
G1 X54.855 Y76.286 E.0173
G1 X53.333 Y74.765 E.06861
G1 X52.791 Y74.765 E.0173
G1 X54.651 Y76.625 E.0839
G1 X54.109 Y76.625 E.0173
G1 X52.248 Y74.765 E.0839
G1 X51.706 Y74.765 E.0173
G1 X53.566 Y76.625 E.0839
G1 X53.024 Y76.625 E.0173
G1 X51.164 Y74.765 E.0839
G1 X50.621 Y74.765 E.0173
G1 X52.482 Y76.625 E.0839
G1 X51.939 Y76.625 E.0173
G1 X50.079 Y74.765 E.0839
G1 X49.537 Y74.765 E.0173
G1 X51.443 Y76.671 E.08597
G1 X51.362 Y76.695 E.00268
G1 X51.102 Y76.872 E.01005
G1 X48.994 Y74.765 E.09505
G1 X48.994 Y75.307 E.0173
G1 X50.905 Y77.218 E.08619
G1 X50.855 Y77.464 E.00799
G1 X50.855 Y77.71 E.00785
G1 X48.994 Y75.85 E.0839
G1 X48.994 Y76.392 E.0173
G1 X50.855 Y78.252 E.0839
G1 X50.855 Y78.795 E.0173
G1 X48.994 Y76.934 E.0839
G1 X48.994 Y77.477 E.0173
G1 X50.855 Y79.337 E.0839
G1 X50.855 Y79.879 E.0173
G1 X48.994 Y78.019 E.0839
G1 X48.994 Y78.561 E.0173
G1 X50.855 Y80.422 E.0839
G1 X50.855 Y80.625 E.00648
G1 X50.515 Y80.625 E.01081
G1 X48.994 Y79.104 E.0686
G1 X48.994 Y79.646 E.0173
G1 X49.973 Y80.625 E.04414
G1 X49.431 Y80.625 E.0173
G1 X48.825 Y80.019 E.02734
M204 S1000
;WIPE_START
G1 F8640
G1 X49.431 Y80.625 E-.19793
G1 X49.973 Y80.625 E-.12524
G1 X48.994 Y79.646 E-.31963
G1 X48.994 Y79.139 E-.1172
;WIPE_END
G1 E-.04 F2100
G1 Z.6 F720
G1 X85.149 Y77.409 F10800
G1 Z.2 F720
G1 E.8 F2100
M204 S800
;TYPE:Perimeter
;WIDTH:0.419999
G1 F1200
G1 X85.137 Y80.908 E.10969
G1 X82.711 Y80.908 E.07606
G1 X82.711 Y77.473 E.10768
G1 X82.675 Y77.275 E.00633
G1 X82.598 Y77.134 E.00503
G1 X82.412 Y76.974 E.00769
G1 X82.146 Y76.908 E.0086
G1 X78.711 Y76.908 E.10768
G1 X78.711 Y74.482 E.07606
G1 X89.137 Y74.482 E.32689
G1 X89.137 Y76.908 E.07606
G1 X85.703 Y76.908 E.10768
G1 X85.437 Y76.974 E.0086
G1 X85.25 Y77.134 E.00769
G1 X85.173 Y77.275 E.00503
G1 X85.16 Y77.35 E.00241
M204 S1000
G1 X85.514 Y77.473 F10800
M204 S800
;TYPE:External perimeter
G1 F1200
G1 X85.514 Y81.285 E.11951
G1 X82.334 Y81.285 E.09971
G1 X82.334 Y77.473 E.11951
G1 X82.297 Y77.36 E.00374
G1 X82.146 Y77.285 E.00529
G1 X78.334 Y77.285 E.11951
G1 X78.334 Y74.105 E.09971
G1 X89.514 Y74.105 E.35054
G1 X89.514 Y77.285 E.09971
G1 X85.703 Y77.285 E.11951
G1 X85.552 Y77.36 E.00529
G1 X85.533 Y77.417 E.00186
M204 S1000
G1 X85.128 Y77.577 F10800
;WIPE_START
G1 F8640
G1 X85.517 Y80.708 E-.76
;WIPE_END
G1 E-.04 F2100
G1 Z.6 F720
G1 X88.248 Y74.595 F10800
G1 Z.2 F720
G1 E.8 F2100
M204 S800
;TYPE:Solid infill
;WIDTH:0.426438
G1 F1200
G1 X88.855 Y75.201 E.02734
G1 X88.855 Y75.744 E.0173
G1 X87.876 Y74.765 E.04415
G1 X87.333 Y74.765 E.0173
G1 X88.855 Y76.286 E.06861
G1 X88.855 Y76.625 E.01081
G1 X88.651 Y76.625 E.00649
G1 X86.791 Y74.765 E.0839
G1 X86.248 Y74.765 E.0173
G1 X88.109 Y76.625 E.0839
G1 X87.566 Y76.625 E.0173
G1 X85.706 Y74.765 E.0839
G1 X85.164 Y74.765 E.0173
G1 X87.024 Y76.625 E.0839
G1 X86.482 Y76.625 E.0173
G1 X84.621 Y74.765 E.0839
G1 X84.079 Y74.765 E.0173
G1 X85.939 Y76.625 E.0839
G1 X85.553 Y76.638 E.01233
G1 X85.446 Y76.675 E.0036
G1 X83.537 Y74.765 E.08613
G1 X82.994 Y74.765 E.0173
G1 X85.114 Y76.885 E.0956
G1 X85.025 Y76.961 E.00373
G1 X84.9 Y77.213 E.00899
G1 X82.452 Y74.765 E.11042
G1 X81.909 Y74.765 E.0173
G1 X84.855 Y77.71 E.13282
G1 X84.855 Y78.252 E.0173
G1 X81.367 Y74.765 E.15728
G1 X80.825 Y74.765 E.0173
G1 X84.855 Y78.795 E.18174
G1 X84.855 Y79.337 E.0173
G1 X82.994 Y77.477 E.0839
G1 X82.942 Y77.177 E.00971
G1 X82.824 Y76.961 E.00786
G1 X82.545 Y76.722 E.01169
G1 X82.143 Y76.625 E.01321
G1 X80.282 Y74.765 E.0839
G1 X79.74 Y74.765 E.0173
G1 X81.6 Y76.625 E.0839
G1 X81.058 Y76.625 E.0173
G1 X79.198 Y74.765 E.0839
G1 X78.994 Y74.765 E.00648
G1 X78.994 Y75.104 E.01081
G1 X80.515 Y76.625 E.0686
G1 X79.973 Y76.625 E.0173
G1 X78.994 Y75.646 E.04414
G1 X78.994 Y76.189 E.0173
G1 X79.6 Y76.795 E.02734
M204 S1000
;WIPE_START
G1 F8640
G1 X78.994 Y76.189 E-.19793
G1 X78.994 Y75.646 E-.12524
G1 X79.973 Y76.625 E-.31963
G1 X80.481 Y76.625 E-.1172
;WIPE_END
G1 E-.04 F2100
G1 Z.6 F720
G1 X82.825 Y77.849 F10800
G1 Z.2 F720
G1 E.8 F2100
M204 S800
G1 F1200
G1 X84.855 Y79.879 E.09155
G1 X84.855 Y80.422 E.0173
G1 X82.994 Y78.561 E.0839
G1 X82.994 Y79.104 E.0173
G1 X84.515 Y80.625 E.0686
G1 X83.973 Y80.625 E.0173
G1 X82.994 Y79.646 E.04414
G1 X82.994 Y80.189 E.0173
G1 X83.6 Y80.795 E.02734
M204 S1000
;WIPE_START
G1 F8640
G1 X82.994 Y80.189 E-.19793
G1 X82.994 Y79.646 E-.12524
G1 X83.973 Y80.625 E-.31963
G1 X84.481 Y80.625 E-.1172
;WIPE_END
G1 E-.04 F2100
G1 Z.6 F720
G1 X71.331 Y77.059 F10800
G1 Z.2 F720
